X:51
T:General Blakeney
M:9/8
L:1/8
B:Thompson's Compleat Collection of 200 Favourite Country Dances, vol. 2 (London, 1765)
Z:Transcribed and edited by Flynn Titford-Mock, 2007
Z:abc's:AK/Fiddler's Companion
K:G
G2G G2A {c}B>AG | AF(D D(FA cBA | BdF GBD EG[B,B] | [Cc]cB AGF G2 [G,G] :|
|: A2 (D D)FA cBA | {c}B2 (G G)Bd =fed | e2 [Cc]-[Cc] e dgb | c2 [A,A]-[A,2A2]c Bdg |
e2 [Cc] d2 [B,2B]c2 [A,A] | BGB cAG FED | [C2c2]e [B,2B] d [A,2A2] c | BGB cAF G2 [G,G] :|

